X: 1734
T: Seninle Bu Aşkı...
C: Dursun Karaca
O: Turkey
F: http://compmusic.upf.edu/node/140
N: nihavent--sarki--duyek--seninle_bu--dursun_karaca
N: makam= nihavent
N: form= sarki
N: usul= duyek = 8/4
M: 8/4
L: 1/16
K: C _B _e  
Q: 1/4=210
%%MIDI tuningsystem comma53
z2 D2 G2 A2 B2 A2 c2 B2  | A16  | z2 d4 A2 c2 B2 A2 B2  | G16  | \
w:   |   |   |   | 
z2 c2 d2 e2 c2 d2 e2 c2  | 
w:   | 
e16  | z2 g4 ^f2 a2 g2 f2 e2  | d16  | z2 d2 g2 a2 b2 a2 g2 a2  | b16  | \
w:   |   |   |   |   | 
z2 d'2 d'2 b2 z2 b2 g2 e2  | 
w:   | 
e16  | z2 c4 c2 c4 B2 c2  | A16  | ^F4 D4 B4 A2 B2  | G16  | \
w:   |   |   |   |   | 
G2 A6 B8  | c2 B6 A8  | d4 d2 d2 d2 c2 B2 A2  | 
w:  Se nin le   |  bu  aş kı   |  kal dı ğı  yer  | 
G16  | c2 d6 e4 d2 f2  | e16  | z2 g4 ^f2 a6 e2  | d16  | \
w:  den    |  De vam  et ti re  |  lim   |  bit me miş  gi  |  bi    | 
c2 d6 e4 d2 f2  | e16  | z2 c6 c2 B2 B2 A2  | 
w:  Bü tün  suç la rı  |  nı   |  af *  fe di yo  | 
A16  | z4 B2 A2 G4 f2 e2  | d16  | z2 A4 A2 B6 A2  | G16  | \
w:  rum    |  Ne  o lur  ge ri   |  dön   |  git me miş  gi  |  bi    | 
c2 d6 e4 d2 f2  | e16  | z2 c6 c2 B2 B2 A2  | 
w:  Bü tün  suç la rı  |  nı   |  af *  fe di yo  | 
A16  | z4 B2 A2 G4 f2 e2  | d16  | z2 A4 A2 B6 A2  | G16  | G16  | \
w:  rum    |  Ne  o lur  ge ri   |  dön   |  git me miş  gi  |  bi    |  bi    | 
z2 d4 d2 g8  | z2 g4 f2 a8  | 
w:  Ra zı yım   |  gön lü mü   | 
a4 g4 f4 g2 f2  | e16  | z2 c4 c2 f8  | \
w:  yer den  *  ye re   |  vur    |  Ra zı yım   | 
g4 f4 a8  | b4 a4 g4 f2 e2  | d16  | c4 d4 e2 d4 f2  | 
w:  kar şım da   |  el ler  *  gi bi   |  dur    |  Bit sin  bu  ay rı  | 
e16  | c4 c4 d4 z2 B2  | A16  | z4 B2 A2 G4 f2 e2  | d16  | \
w:  lık   |  bit sin  bu  gu  |  rur    |  Ne  o lur  ge ri   |  dön   | 
z2 A4 A2 B6 A2  | G16  | c4 d4 e2 d4 f2  | 
w:  git me miş  gi  |  bi    |  Bit sin  bu  ay rı  | 
e16  | c4 c4 d4 z2 B2  | A16  | z4 B2 A2 G4 f2 e2  | d16  | \
w:  lık   |  bit sin  bu  gu  |  rur    |  Ne  o lur  ge ri   |  dön   | 
z2 A4 A2 B6 A2  | G16  | z2 D2 G2 A2 B2 A2 c2 B2  | 
w:  git me miş  gi  |  bi    |   | 
A16  | z2 d4 A2 c2 B2 A2 B2  | G16  | z2 c2 d2 e2 c2 d2 e2 c2  | e16  | \
w:   |   |   |   |   | 
z2 g4 ^f2 a2 g2 f2 e2  | 
w:   | 
d16  | z2 d2 g2 a2 b2 a2 g2 a2  | b16  | \
w:   |   |   | 
z2 d'2 d'2 b2 z2 b2 g2 e2  | e16  | z2 c4 c2 c4 B2 c2  | 
w:   |   |   | 
A16  | ^F4 D4 B4 A2 B2  | G16  | g2 a6 b4 a2 g2  | ^f16  | \
w:   |   |   |  Ne  ben  söy le ye  |  yim   | 
g2 a6 c'2 b4 a2  | a16  | a2 b4 a2 c'2 b4 a2  | 
w:  ne  sen  ha tır  |  lat    |  U nut  o  ve dâ  | 
b16  | z4 c'2 b2 a2 g2 f2 e2  | d16  | c2 d4 e2 z2 d4 f2  | e16  | \
w:  yı   |  a nı lar *  dan   |  at    |  Bi zim le  baş la  |  sın   | 
z4 c2 c2 d6 B2  | 
w:  ye ni den  ha  | 
A16  | z4 B2 A2 G4 f2 e2  | d16  | z2 A4 A2 B6 A2  | G16  | \
w:  yat    |  Ne  o lur  ge ri   |  dön   |  git me miş  gi  |  bi    | 
c2 d4 e2 z2 d4 f2  | e16  | 
w:  Bi zim le  baş la  |  sın   | 
z4 c2 c2 d6 B2  | A16  | z4 B2 A2 G4 f2 e2  | d16  | \
w:  ye ni den  ha  |  yat    |  Ne  o lur  ge ri   |  dön   | 
z2 A4 A2 B6 A2  | G16  | |


